Sources/FrostedUI/Resources/Icons.xcassets/receptionBell20.imageset/reception-bell-20.svg

<svg width="20" height="20" viewBox="0 0 20 20" fill="none" xmlns="http://www.w3.org/2000/svg" data-fui-icon="true">
  <path
    d="M12.25 1C12.6642 1 13 1.33579 13 1.75C13 2.16421 12.6642 2.5 12.25 2.5H10.75V4.52246C13.8274 4.70938 15.8547 6.05272 17.1211 7.91406C18.4541 9.87375 18.892 12.3287 18.9814 14.3848C19.021 15.2933 18.2814 15.9998 17.417 16H10.75V17.5H18.25C18.6642 17.5 19 17.8358 19 18.25C19 18.6642 18.6642 19 18.25 19H1.75C1.33579 19 1 18.6642 1 18.25C1 17.8358 1.33579 17.5 1.75 17.5H9.25V16H2.58301C1.71855 15.9998 0.979036 15.2933 1.01855 14.3848C1.10799 12.3287 1.54585 9.87375 2.87891 7.91406C4.14527 6.05272 6.17259 4.70938 9.25 4.52246V2.5H7.75C7.33579 2.5 7 2.16421 7 1.75C7 1.33579 7.33579 1 7.75 1H12.25ZM10 6C6.96784 6 5.19164 7.18143 4.11914 8.75781C3.01324 10.3836 2.60183 12.5133 2.51758 14.4502C2.51728 14.4576 2.51838 14.4619 2.51953 14.4648C2.52101 14.4684 2.52387 14.474 2.5293 14.4795C2.54063 14.4908 2.55865 14.4999 2.58301 14.5H17.417C17.4414 14.4999 17.4594 14.4908 17.4707 14.4795C17.4761 14.474 17.479 14.4684 17.4805 14.4648C17.4816 14.4619 17.4827 14.4576 17.4824 14.4502C17.3982 12.5133 16.9868 10.3836 15.8809 8.75781C14.8084 7.18143 13.0322 6 10 6Z"
    fill="currentColor"
  />
</svg>

<svg xmlns="http://www.w3.org/2000/svg" width="20" height="20" fill="none" data-fui-icon="true" viewBox="0 0 20 20"><path fill="currentColor" d="M12.25 1a.75.75 0 0 1 0 1.5h-1.5v2.022c3.077.187 5.105 1.53 6.371 3.392 1.333 1.96 1.771 4.415 1.86 6.47.04.91-.7 1.616-1.564 1.616H10.75v1.5h7.5a.75.75 0 0 1 0 1.5H1.75a.75.75 0 0 1 0-1.5h7.5V16H2.583c-.864 0-1.604-.707-1.564-1.615.089-2.056.527-4.511 1.86-6.47C4.145 6.052 6.173 4.708 9.25 4.521V2.5h-1.5a.75.75 0 0 1 0-1.5zM10 6C6.968 6 5.192 7.181 4.12 8.758c-1.107 1.626-1.518 3.755-1.602 5.692q0 .011.002.015.001.006.01.014.016.019.053.021h14.834c.024 0 .042-.01.054-.02l.01-.015.001-.015c-.084-1.937-.495-4.066-1.601-5.692C14.808 7.18 13.032 6 10 6"/></svg>
